X: 29702
T: Novice, The
R: jig
M: 6/8
K: Dmajor
F|:D2F AGF|BAG AFE|D2F AGF|GFE F3|
D2F AGF|BAG ABc|dcd AGF|AFE D2F:|
|:ABd e2f|e2f edB|ABd e2f|gfe f2d|
ABd e2f|e2f edB|dcd AGF|AFE D2F:|

